X:1
T:Cruel, behold my heavy ending - Wilbye
T:#
%%score 1 2 3 { 4 | 5 }
L:1/8
Q:1/4=120
M:4/4
K:Bb
V:1 treble nm="Soprano I"
V:2 treble nm="Soprano II"
V:3 treble nm="Alto" snm="A"
V:4 treble-8 nm="Tenor I" snm="T"
V:5 treble-8 
V:1
"^Cruel, behold my heavy ending""^John Wilbye\n (1574-1638)" z8 | z8 | z8 | z8 | z8 | z8 | z8 | %7
w: |||||||
 z8 |!p! d8- |[M:4/4] d8 | B4 c4 | d8- | d8 | z4 G4 | B4 A4 | G8 | z2 G2 A4- | A2 G2 G4- | G4 ^F4 | %19
w: |Cru\-||el, be-|hold,||cru-|el, be-|hold,|my hea\-|* vy end\-|* ing,|
 z2 G2 D2 E2 | D4 z4 | z2 G4 c2- | c2 B2 A4 | G8 | z4 D4 | D2 D2 D4 | z2"^cresc." d4 cB | %27
w: cru- el, be-|hold,|my hea\-|* vy end-|ing,|See|what you wrought,|see what you|
 A3 B A2 G2 | ^F4 D4 | z2"^cresc." d4 cB | A3 B A2 A2 | G2 G2 z2 D2 | D2 E2 F2 G2 | A2 (Bc) d4 | %34
w: wrought by your dis-|dain- ing,|see what you|wrought by your dis-|dain- ing, see|what you wrought by|your dis\- * dain-|
 d4!p! _B4- | B2 AG ^F4- | F2 G2 A2 B2- | B2 A2 B2 (AG) | ^F2 G4 F2 | G2 E2 D2 D2 | E6 D2 | C8 | %42
w: ing. Cause\-|* less I die,|* love still at\-|* tend- ing Your *|hope- less pi-|ty, pi- ty of|my com-|plain-|
 D8 | z8 | z8 | z4 z2!p! B2 | B2 c2 d2 d2- | d2 c2 c4- | c4 B4 | A8 | G8 | z2 d3 c B2 | %52
w: ing|||your|hope- less pi- ty|* of my|* com-|plain-|ing.|Suf- fer those|
 A2 G2 c3 c | A4 G4- | G4 z2!p! d2- | dc B2 A2 G2 | ^F2 G2 A4 | G8 | z2"^cresc." d2 (cBAB | %59
w: eyes, which thus have|slain me,|* Suf\-|* fer those eyes, which|thus have slain|me,|With speed * * *|
 c2) d2 B2 B2 | c2 d2 c4 | d6 d2 | d2 c2 B2 B2 | B2 A2 G4 | =F8 | z8 | z8 | z4!p! d4- | d4 c4- | %69
w: * to end their|kill- ing pow-|er, So|shall you prove how|love doth pain|me,|||And|* see|
 c4 B4 | A4 z4 | c8 | d8 | d4!pp! c4- | c4 B4 | A8 | =B8- | B16 |] %78
w: * me|die,|and|see|me die|* still|your.|||
V:2
!p! d8- | d8 | d6 d2 | d4 c4 | B8- | B4 (A4- | A2 G2) (G4- | G4 ^F4) | G8 |[M:4/4] z8 | z8 | %11
w: Cru\-||el, be-|hold my|hea\-|* vy|* * end\-||ing,|||
 z4 G4 | B4 A4 | G4 z4 | d8 | B6 c2 | d8- | d8 | d8 | z4 G4 | B4 A4 | G8- | G4 ^F4 | z2 G2 B2 c2 | %24
w: cru-|el, be-|hold,|cru-|el, be-|hold,|||my|hea- vy|end\-|* ing,|See what you|
 d4 z4 | z2"^cresc." d4 cB | A3 B A2 G2 | ^F4 D4 | z2"^cresc." d4 cB | A3 B A2 G2 | ^F4 D4 | %31
w: wrought,|see what you|wrought by your dis-|dain- ing,|see what you|wrought by your dis-|dain- ing,|
 z4 z2"^cresc." d2- | d2 cB A3 G | ^F2 G4 F2 | G8 |!p! d6 cB | A2 B2 c2 d2 | c4 d2 c2 | A2 B2 A4 | %39
w: see|* what you wrought by|your dis- dain-|ing.|Cause- less I|die, love still at-|tend- ing Your|hope- less pi-|
 G4 G4 | G4 G4- | G4 ^F4 | G8 | z8 | z8 | z4 z2!p! d2 | d2 c2 B4 | A4 G4 | ^F4 G4 | G4 ^F4 | %50
w: ty of|my com\-|* plain-|ing,|||your|hope- less pi-|ty of|my com-|plain- ing.|
 z2"^cresc." d3 c B2 | A2 G2 ^F2 G2 | A2 D2 z4 | z4 z2!p! d2- | dc B2 A2 G2 | ^F2 G2 A2 D2 | %56
w: Suf- fer those|eyes, which thus have|slain me,|Suf\-|* fer those eyes, which|thus have slain me,|
 z4"^cresc." d4 | (BABc d2) B2 | c2 B2 (AG=FG | A2) B2 G3 F | (GA) B4 A2 | B4 B4 | B2 A2 G2 G2 | %63
w: With|speed * * * * to|end, with speed * * *|* to end their|kill\- * ing pow-|er, So|shall you prove how|
 G2 F2 E4 | D6 d2 | d2 c2 B2 B2 | A2 G2 A4 | G4 z2!p! G2 | B4 c4 | d8 | z4 A4- | A4 G4- | G4 ^F4 | %73
w: love doth pain|me, so|shall you prove how|love doth pain|me, And|see me|die,|and|* see|* me|
 G4!pp! G4 | d8- | d8 | d8 | d16 |] %78
w: die still|your.||||
V:3
!p! B8 | B4 A4 | B4 B4 | A2 B4 A2 | G4 F4 | F6 E2 | D8- | D4 D4 | D4 D4 |[M:4/4] D8 | D4 G4 | %11
w: Cru-|el, be-|hold my|hea- vy end-|ing, cru-|el, be-|hold|* my|hea- vy|end-|ing, my|
 A3 G G4- | G4 ^F4 | z2 G2 D2 E2 | D8 | z8 | z8 | z2 G2 B4- | B4 A4 | G8 | G4 z4 | z8 | z8 | %23
w: hea- vy end\-|* ing,|cru- el, be-|hold,|||my hea\-|* vy|end-|ing,|||
 z2"^cresc." B4 AG | ^F2 D2 F2 G2 | A8 | D8 | z2 D2 ^F2 G2 | A3 G ^F2 G2 | A2 D2 z4 | D4 ^F2 F2 | %31
w: See what you|wrought by your dis-|dain-|ing,|see what you|wrought by your dis-|dain- ing,|see what you|
 G4 z4 | G4 D2 G,2 | D8 | D4 G4- | G2 FE D4- | D2 G2 F2 D2 | F4 B,2 C2 | D4 D4 | =B,2 C4 B,2 | %40
w: wrought,|by your dis-|dain-|ing. Cause\-|* less I die,|* love still at-|tend- ing Your|hope- less|pi- ty of|
 C6 _B,2 | A,8 | G,8 | z8 | z4 z2!p! F2 | F3 E D2 B,2 | z4 F4 | F4 C4 | D8 | D4 z4 | %50
w: my com-|plain-|ing,||your|hope- less pi- ty|of|my com-|plain-|ing.|
 z4 z2"^cresc." D2- | DC (B,C) D4 | z2 B2 A2 G2 | (G2 ^F2) G4 | z2!p! D3 C (B,C) | D4 z2 B2 | %56
w: Suf\-|* fer those * eyes,|which thus have|slain * me,|suf- fer those *|eyes, which|
 A2 G2 ^F4 | G4"^cresc." B4 | (AGFG A4) | F4 G2 D2 | E2 F2 F4 | F4 F4 | F3 E D2 D2 | D3 C B,4 | %64
w: thus have slain|me, With|speed * * * *|to end their|kill- ing pow-|er, So|shall you prove how|love doth pain|
 B,6 B2 | B2 A2 G2 G2 | ^F2 G2 (G2 F2) |!>(! G8- |!p! G8!>)! | G8 | z8 | z4 G,4 | D4 D4 | %73
w: me, so|shall you prove how|love doth pain *|me,||||and|see my|
 D4!pp! B4 | ^F4 G4- | G4 (^F4 | G8- | G16) |] %78
w: die, me|die still|* your.|||
V:4
!p! g8 | g4 ^f4 | g6 d2 | =f8 | B8 | d6 c2 | B4 B4 | A8 | G4 g4 |[M:4/4][K:treble-8] g4 ^f4 | %10
w: Cru-|el, be-|hold, cru-|el,|be-|hold my|hea- vy|end-|ing, my|hea- vy|
 g4 G4 | d8- | d8 | B6 c2 | d4 z4 | z2 g2 d2 e2 | d2 B2 d2 c2 | B4 B4 | z8 | z8 | z2 G2 A2 A2 | %21
w: end- ing,|cru\-||el, be-|hold,|cru- el, be-|hold my hea- vy|end- ing,|||cru- el, be-|
 B2 G2 B2 c2 | d8 | G8 | z2"^cresc." d4 cB | A3 B A2 G2 | ^F4 D4 | d6 BB | A3 B A2 G2 | ^F4 D4 | %30
w: hold my hea- vy|end-|ing,|See what you|wrought by your dis-|~dain- ing,|see what you|wrought by your dis-|dain- ing,|
 z2"^cresc." d4 dc | B2 G2 g2 (fe) | d2 z2 d2 c2- | c2 B2 A4 | G8 | z8 | z8 | z8 | z8 | z8 | z8 | %41
w: see what you|wrought, see what you *|wrought by your|* dis- dain-|ing.|||||||
 z8 | z8 |!p! d6 cB | A2 B2 c2 d2 | c4 d2 f2 | f3 e d2 B2 | z8 | z8 | z8 | z2"^cresc." B3 A G2 | %51
w: ||Cause- less I|die, love still at-|tend- ing, love|still at- tend- ing,||||Suf- fer those|
 ^F2 G2 D2 G2 | d2 d2 z4 | z4 z2!p! B2- | BA G2 ^F2 G2 | D2 G2 d2 d2 | z2 d2 d2 d2 | d4 d4 | %58
w: eyes, which thus have|slain me,|suf\-|* fer those eyes, which|thus have slain me,|With speed to|end their|
 f2 f2 f4- | f4 B4 | z8 | z8 | z8 | z8 | z4 d4 | f3 e d2 d2 | d2 G2 d4 | d4!p! d4 | d4 e4 | %69
w: kill- ing pow\-|* er,|||||So|shall you prove how|love doth pain|me, And|see my|
 d6 =e2 | f8- | f4 z4 | z4 d4 | g4 e4 | d6 d2 | d8- | d8 | d16 |] %78
w: die, and|see,||and|see my|die still|your.|||
V:5
 z8 | z8 | z8 | z8 | z8 | z8 | z8 | z8 | z4!p! G4 |[M:4/4][K:treble-8] B4 A4 | G8 | z8 | z4 A4 | %13
w: ||||||||Cru-|el, be-|hold||my|
 d4 G4 | G4 ^F4 | z8 | z8 | d8- | d8 | B6 c2 | d2 B2 c2 d2 | G4 G4 | z8 | z2"^cresc." d4 cB | %24
w: hea- vy|end- ing,|||cru\-||el, be-|hold my hea- vy|end- ing,||See what you|
 A3 B A2 G2 | ^F4 D4 | z2 D2 ^F2 G2 | A6 B2 | d4 d4 | d8 | d4 z4 | G4 G2 A2 | B2 (AG) F2 c2 | %33
w: wrought by your dis-|dain- ing,|see what you|wrought by|your dis-|dain-|ing,|see what you|wrought by * your dis-|
 (A2 G2 A4) | =B4 z4 | z8 | z8 | z8 | z8 | z8 | z8 | z8 | z4!p! B4- | B2 AG ^F4- | F2 G2 A2 B2- | %45
w: dain\- * *|ing.||||||||Cause\-|* less I die,|* love still at\-|
 B2 A2 B4 | F4 F2 F2 | F4 G4 | A4 B3 c | d8 | d8 | z4 z2"^cresc." d2- | dc B2 e2 e2 | d4 d4 | %54
w: * tend- ing|your hope- less|pi- ty|of my com-|plain-|ing.|Suf\-|* fer those eyes, which|thus have|
 d4 d4 | z2!p! d3 c (Bc) | d2 B2 A2 A2 | B4 B4 | z2"^cresc." d2 (ABcB | A2) d2 e2 f2 | e2 B2 c4 | %61
w: slain me,|suf- fer those *|eyes, which thus have|slain me,|With speed * * *|* to end their|kill- ing pow-|
 B8 | z8 | z8 | z4 B4 | F2 F2 G2 G2 | D2 E2 D4 | G8 | z8 | z4!p! d4- | d4 c4- | c4 c4 | B4 A4 | %73
w: er,|||So|shall you prove how|love doth pain|me,||And|* see|* me|die, me|
 G6 c2 | A4 G4 | (A8 | G8- | G16) |] %78
w: die, me|die still|your.|||

